!!!SOCIAL_FUNCTION:	deer dance songs
!!!PDT:	1932
!!!OTL: No_67_Song_of_the_Blackbird.krn
!!!REG: Southwest
!!!LANG: Non-Tone
!!!LING_GROUP: Yuman-Cochimi
**kern
*staff1
=1-
*clefF4
*k[f#c#]
*M2/4
4r
8.F#\L
16F#\Jk
=2
4A\
8.A\L
16F#\Jk
=3
4A\
8.B\L
16F#\Jk
=4||
*M3/4
2A\
8.F#\L
16F#\Jk
=5||
*M2/4
4A\
(8.A\L
16F#\Jk)
=6
4F#\
8.A\L
16A\Jk
=7||
*M3/4
4A\
4r
8.F#\L
16F#\Jk
=8||
*M2/4
4A\
(8.A\L
16F#\Jk)
=9
4A\
8.B\L
16F#\Jk
=10||
*M3/4
4.B\
8F#\
8A\
8r
=11||
*M2/4
4.B\
8F#\
=12
4A\
8.B\L
16F#\Jk
=13||
*M3/4
4A\
4r
8.F#\L
16F#\Jk
=14||
*M2/4
4A\
4A\
=15
4F#\
8.A\L
16A\Jk
=16
2A\
=17
2r
=18
4r
8r
8A\
=19
4..A\
16A\
=20
4A\
8.d\L
16B\Jk
=21||
*M3/4
4..cn\
16A\
8B\
8r
=22||
*M2/4
4..cn\
16A\
=23
4B\
8.cn\L
16G\Jk
=24
4..A\
16F#\
=25
4F#\
4r
=26
4B\
8.cn\L
16G\Jk
=27
4A\
8.B\L
16cn\Jk
=28||
*M3/4
4A\
4r
8F#\L
8F#\J
=29||
*M2/4
2A\
=30
4F#\
8.A\L
16B\Jk
=31||
*M3/4
2A\
4r
=32||
*M2/4
4F#\
8.A\L
16F#\Jk
=33
4A\
8.B\L
16F#\Jk
=34||
*M3/4
4.B\
8F#\
8A\
8r
=35||
*M2/4
4.B\
8F#\
=36
4A\
8.B\L
16F#\Jk
=37||
*M3/4
4A\
4r
8.F#\L
16F#\Jk
=38||
*M2/4
4A\
4A\
=39
4F#\
8.A\L
16A\Jk
=40
2A\
==
*-
